X:28
T:Skuttungeschottis
R:schottis
Z:id:hn-schottis-28
M:C|
K:D
Ad|f2Ad f2ed|dccc c4|B2G2 B2AG|GFFF F2Ad|
f2ff f2ed|dccc c2ef|gfga bgec|d2dc d2:|
|:FG|A2A2 Adfd|dcce g4|geec A2A2|afdA F2FG|
A2A2 Adfd|dccc c2ef|gfga bgec|d2dc d2:|
<end>
<start>
